icon/lg/database-labs.svg

<svg width="256" height="256" xmlns="http://www.w3.org/2000/svg" preserveAspectRatio="xMidYMid"><path d="M126.028 105.396h-39.48c-2.917 6.426-9.374 10.903-16.89 10.903-10.248 0-18.555-8.307-18.555-18.554 0-10.248 8.307-18.555 18.555-18.555 7.516 0 13.973 4.477 16.89 10.903h30.645l-12.994-22.505H34.733L0 127.748l15.699 27.191H61.05c1.295-3.246 4.453-5.547 8.161-5.547a8.798 8.798 0 0 1 8.799 8.799 8.798 8.798 0 0 1-16.896 3.443h-41.55l15.169 26.273h69.466l34.733-60.159-12.904-22.352M255.745 60.159 221.012 0h-31.158L167.26 39.149c2.164 2.744 2.578 6.63.724 9.842a8.798 8.798 0 0 1-12.019 3.222 8.8 8.8 0 0 1-3.223-12.019 8.801 8.801 0 0 1 8.687-4.336L182.124 0h-30.578l-34.734 60.159 34.734 60.16h26.632l19.399-34.254c-4.155-5.705-4.869-13.53-1.165-20.07 5.05-8.917 16.373-12.052 25.289-7.002 8.917 5.05 12.052 16.372 7.002 25.289-3.704 6.54-10.782 9.953-17.81 9.324l-15.129 26.713h25.248l34.733-60.16M240.857 221.564 256 195.336l-34.733-60.16h-69.466l-12.898 22.34 19.829 34.469c7.025-.677 14.126 2.688 17.874 9.203 5.11 8.882 2.052 20.226-6.83 25.336-8.883 5.11-20.226 2.052-25.336-6.831-3.748-6.515-3.088-14.345 1.028-20.077l-15.409-26.783-12.992 22.503 34.734 60.159h69.466l15.729-27.244-22.614-38.979c-3.458.509-7.033-1.068-8.894-4.276a8.8 8.8 0 0 1 15.222-8.831 8.8 8.8 0 0 1-.569 9.692l20.716 35.707" fill="#83292A"/><path d="M220.2 75.364a7.65 7.65 0 0 1-7.651 7.651 7.651 7.651 0 1 1 7.651-7.651M77.309 97.745a7.652 7.652 0 1 1-15.303-.001 7.652 7.652 0 0 1 15.303.001M167.979 210.604a7.651 7.651 0 0 1-7.652 7.651 7.652 7.652 0 1 1 7.652-7.651" fill="#B3B2B2"/><path d="M212.549 62.05c-7.218 0-13.091 5.873-13.091 13.091 0 3.409 1.347 6.476 3.498 8.798l-22.783 39.897h-30.517l-17.343-29.565H82.007c-1.512-5.544-6.523-9.649-12.541-9.649-7.218 0-13.091 5.873-13.091 13.091 0 7.218 5.873 13.09 13.091 13.09 5.91 0 10.852-3.956 12.463-9.348h46.09l15.321 26.138-16.956 29.701 24.917 43.959c-2.377 2.366-3.873 5.611-3.873 9.222 0 7.218 5.873 13.091 13.091 13.091 7.218 0 13.091-5.873 13.091-13.091 0-7.218-5.873-13.088-13.091-13.088-.989 0-1.94.139-2.865.351l-22.871-40.494 15.255-26.102h34.247l24.961-43.397c1.06.287 2.153.486 3.303.486 7.218 0 13.091-5.872 13.091-13.09s-5.873-13.091-13.091-13.091Zm0 24.038a10.89 10.89 0 0 1-4.315-.892l-25.19 43.806H148.81l-16.499 28.224 24.356 43.036c1.203-.455 2.492-.735 3.852-.735 6.037 0 10.948 4.911 10.948 10.948 0 6.038-4.911 10.951-10.948 10.951-6.038 0-10.948-4.913-10.948-10.951 0-3.612 1.779-6.796 4.486-8.791L128.85 157.3l16.965-29.722-16.567-28.266-48.996.004c-.783 5.273-5.297 9.344-10.786 9.344-6.037 0-10.948-4.911-10.948-10.947 0-6.037 4.911-10.948 10.948-10.948 5.594 0 10.167 4.23 10.817 9.652l50.802-.003 17.342 29.565h32.99l24.23-42.411c-2.449-2.009-4.046-5.019-4.046-8.427 0-6.037 4.91-10.948 10.948-10.948 6.037 0 10.948 4.911 10.948 10.948 0 6.036-4.911 10.947-10.948 10.947Z" fill="#040707"/></svg>

<?xml version="1.0" encoding="UTF-8" standalone="no"?>
<svg viewBox="0 0 256 256" version="1.1" xmlns="http://www.w3.org/2000/svg" xmlns:xlink="http://www.w3.org/1999/xlink" preserveAspectRatio="xMidYMid" height="1em" width="1em">
  <g>
    <path d="M126.028,105.396 L86.548,105.396 C83.631,111.822 77.174,116.299 69.658,116.299 C59.41,116.299 51.103,107.992 51.103,97.745 C51.103,87.497 59.41,79.19 69.658,79.19 C77.174,79.19 83.631,83.667 86.548,90.093 L117.193,90.093 L104.199,67.588 L34.733,67.588 L0,127.748 L15.699,154.939 L61.05,154.939 C62.345,151.693 65.503,149.392 69.211,149.392 C74.071,149.392 78.01,153.331 78.01,158.191 C78.01,163.051 74.071,166.99 69.211,166.99 C65.574,166.99 62.454,164.782 61.114,161.634 L19.564,161.634 L34.733,187.907 L104.199,187.907 L138.932,127.748 L126.028,105.396" fill="#83292A"/>
    <path d="M255.745,60.159 L221.012,0 L189.854,0 L167.26,39.149 C169.424,41.893 169.838,45.779 167.984,48.991 C165.555,53.2 160.174,54.643 155.965,52.213 C151.756,49.784 150.314,44.403 152.742,40.194 C154.561,37.044 158.033,35.445 161.429,35.858 L182.124,0 L151.546,0 L116.812,60.159 L151.546,120.319 L178.178,120.319 L197.577,86.065 C193.422,80.36 192.708,72.535 196.412,65.995 C201.462,57.078 212.785,53.943 221.701,58.993 C230.618,64.043 233.753,75.365 228.703,84.282 C224.999,90.822 217.921,94.235 210.893,93.606 L195.764,120.319 L221.012,120.319 L255.745,60.159" fill="#83292A"/>
    <path d="M240.857,221.564 L256,195.336 L221.267,135.176 L151.801,135.176 L138.903,157.516 L158.732,191.985 C165.757,191.308 172.858,194.673 176.606,201.188 C181.716,210.07 178.658,221.414 169.776,226.524 C160.893,231.634 149.55,228.576 144.44,219.693 C140.692,213.178 141.352,205.348 145.468,199.616 L130.059,172.833 L117.067,195.336 L151.801,255.495 L221.267,255.495 L236.996,228.251 L214.382,189.272 C210.924,189.781 207.349,188.204 205.488,184.996 C203.05,180.793 204.48,175.408 208.684,172.969 C212.887,170.531 218.272,171.962 220.71,176.165 C222.536,179.311 222.191,183.118 220.141,185.857 L240.857,221.564" fill="#83292A"/>
    <path d="M220.2,75.364 C220.2,79.59 216.775,83.015 212.549,83.015 C208.323,83.015 204.897,79.59 204.897,75.364 C204.897,71.138 208.323,67.713 212.549,67.713 C216.775,67.713 220.2,71.138 220.2,75.364" fill="#B3B2B2"/>
    <path d="M77.309,97.745 C77.309,101.97 73.883,105.396 69.658,105.396 C65.432,105.396 62.006,101.97 62.006,97.745 C62.006,93.519 65.432,90.093 69.658,90.093 C73.883,90.093 77.309,93.519 77.309,97.745" fill="#B3B2B2"/>
    <path d="M167.979,210.604 C167.979,214.83 164.553,218.255 160.327,218.255 C156.102,218.255 152.676,214.83 152.676,210.604 C152.676,206.378 156.102,202.952 160.327,202.952 C164.553,202.952 167.979,206.378 167.979,210.604" fill="#B3B2B2"/>
    <path d="M212.549,62.05 C205.331,62.05 199.458,67.923 199.458,75.141 C199.458,78.55 200.805,81.617 202.956,83.939 L180.173,123.836 L149.656,123.836 L132.313,94.271 L82.007,94.271 C80.495,88.727 75.484,84.622 69.466,84.622 C62.248,84.622 56.375,90.495 56.375,97.713 C56.375,104.931 62.248,110.803 69.466,110.803 C75.376,110.803 80.318,106.847 81.929,101.455 L128.019,101.455 L143.34,127.593 L126.384,157.294 L151.301,201.253 C148.924,203.619 147.428,206.864 147.428,210.475 C147.428,217.693 153.301,223.566 160.519,223.566 C167.737,223.566 173.61,217.693 173.61,210.475 C173.61,203.257 167.737,197.387 160.519,197.387 C159.53,197.387 158.579,197.526 157.654,197.738 L134.783,157.244 L150.038,131.142 L184.285,131.142 L209.246,87.745 C210.306,88.032 211.399,88.231 212.549,88.231 C219.767,88.231 225.64,82.359 225.64,75.141 C225.64,67.923 219.767,62.05 212.549,62.05 L212.549,62.05 Z M212.549,86.088 C211.016,86.088 209.559,85.766 208.234,85.196 L183.044,129.002 L148.81,129.002 L132.311,157.226 L156.667,200.262 C157.87,199.807 159.159,199.527 160.519,199.527 C166.556,199.527 171.467,204.438 171.467,210.475 C171.467,216.513 166.556,221.426 160.519,221.426 C154.481,221.426 149.571,216.513 149.571,210.475 C149.571,206.863 151.35,203.679 154.057,201.684 L128.85,157.3 L145.815,127.578 L129.248,99.312 L80.252,99.316 C79.469,104.589 74.955,108.66 69.466,108.66 C63.429,108.66 58.518,103.749 58.518,97.713 C58.518,91.676 63.429,86.765 69.466,86.765 C75.06,86.765 79.633,90.995 80.283,96.417 L131.085,96.414 L148.427,125.979 L181.417,125.979 L205.647,83.568 C203.198,81.559 201.601,78.549 201.601,75.141 C201.601,69.104 206.511,64.193 212.549,64.193 C218.586,64.193 223.497,69.104 223.497,75.141 C223.497,81.177 218.586,86.088 212.549,86.088 L212.549,86.088 Z" fill="#040707"/>
  </g>
</svg>
